X:1
T: Beebe's Hornpipe
C:
R:Reel
Q:232
K:A
M:4/4
L:1/8
|:E2|cE BE AE ^DE|cE BE AE ^DE|cA GA fe ^df|ec Ac B3E|
cE BE AE ^DE|cE BE AE ^DE|cA GA ea ga|fd BG A2:|
|:cd|e2ef ed ce|fg fe fg af|e^d ef ec Ac|BA GF E2cd|
e^d ef e=d ce|fg fe fg af|ea ga fd BG|A2c2 A2:|
